packages/kaspersky-hexa-ui-icons/src/iconsSVGs/24/EmojiSad.svg

<svg width="24" height="24" viewBox="0 0 24 24" fill="none" xmlns="http://www.w3.org/2000/svg">
<path d="M8.99793 10.7501C9.78308 10.7501 10.4196 10.1136 10.4196 9.32848C10.4196 8.54332 9.78308 7.90683 8.99793 7.90683C8.21278 7.90683 7.57629 8.54332 7.57629 9.32848C7.57629 10.1136 8.21278 10.7501 8.99793 10.7501Z" fill="black"/>
<path d="M16.4237 9.32848C16.4237 10.1136 15.7872 10.7501 15.0021 10.7501C14.2169 10.7501 13.5804 10.1136 13.5804 9.32848C13.5804 8.54332 14.2169 7.90683 15.0021 7.90683C15.7872 7.90683 16.4237 8.54332 16.4237 9.32848Z" fill="black"/>
<path d="M16.3391 14.9557C16.7278 15.348 16.7249 15.9812 16.3326 16.3699C15.9403 16.7587 15.3072 16.7558 14.9184 16.3635C14.7879 16.2317 13.7749 15.2751 12.1835 15.2445C12.1299 15.2435 12.074 15.2435 12.0181 15.2445C10.3171 15.2753 9.24178 16.2145 9.07259 16.374C8.67074 16.7528 8.03785 16.7342 7.65899 16.3323C7.28013 15.9305 7.29876 15.2976 7.70061 14.9187C8.02678 14.6112 9.55956 13.2887 11.9819 13.2449C12.0604 13.2435 12.1413 13.2433 12.222 13.2449C14.5889 13.2904 16.0736 14.6878 16.3391 14.9557Z" fill="black"/>
<path fill-rule="evenodd" clip-rule="evenodd" d="M22.0001 12C22.0001 17.5229 17.5229 22.0001 12 22.0001C6.47717 22.0001 2 17.5229 2 12C2 6.47716 6.47717 2 12 2C17.5229 2 22.0001 6.47716 22.0001 12ZM20.0001 12C20.0001 16.4183 16.4183 20.0001 12 20.0001C7.58174 20.0001 4 16.4183 4 12C4 7.58174 7.58174 4 12 4C16.4183 4 20.0001 7.58174 20.0001 12Z" fill="black"/>
</svg>

<svg xmlns="http://www.w3.org/2000/svg" width="24" height="24" fill="none" viewBox="0 0 24 24"><path fill="#000" fill-rule="evenodd" d="M22.0001 12c0 5.5229-4.4772 10.0001-10.0001 10.0001S2 17.5229 2 12 6.4772 2 12 2s10.0001 4.4772 10.0001 10m-2 0c0 4.4183-3.5818 8.0001-8.0001 8.0001S4 16.4183 4 12s3.5817-8 8-8 8.0001 3.5817 8.0001 8M8.9979 10.7501c.7852 0 1.4217-.6365 1.4217-1.4216s-.6365-1.4217-1.4217-1.4217-1.4216.6365-1.4216 1.4217.6365 1.4216 1.4216 1.4216m7.4258-1.4216c0 .7851-.6365 1.4216-1.4216 1.4216s-1.4217-.6365-1.4217-1.4216.6365-1.4217 1.4217-1.4217 1.4216.6365 1.4216 1.4217m-.0846 5.6272c.3887.3923.3858 1.0255-.0065 1.4142-.3923.3888-1.0254.3859-1.4142-.0064-.1305-.1318-1.1435-1.0884-2.7349-1.119a5 5 0 0 0-.1654 0c-1.701.0308-2.7763.97-2.9455 1.1295-.4019.3788-1.0347.3602-1.4136-.0417-.3789-.4018-.3602-1.0347.0416-1.4136.3262-.3075 1.859-1.63 4.2813-1.6738a6 6 0 0 1 .2401 0c2.3669.0455 3.8516 1.4429 4.1171 1.7108"/></svg>
